X:22103
T:La Mourisque
R:Reel|Jig|Slip Jig|Hornpipe|Polka|Waltz
B:Tuneworks Tunebook 2 (https://www.tuneworks.co.uk/)
G:Tuneworks
Z:Jon Warbrick <jon.warbrick@googlemail.com>
M:2/4
L:1/8
K:D
|: "D" f/g/a aa | a3 g | fd de | "A" c>B A2 | "D" f/g/a aa | a3 g |"G" fd"A" ec |"D" d2 d2 :|
|: "D" fd de | "D" fd"G" ge | "D" fd de | "A" c>B A2 | "D" fd de | "D" fd"G" ge | "D" fd"A" ec | "D" d2 d2 :|
